src/img/bg--shield.svg

<svg width="358" height="371" viewBox="0 0 358 371" fill="none" xmlns="http://www.w3.org/2000/svg">
<path d="M12.7808 51.1542H0V166.317H12.7808V51.1542Z" fill="#DEDEDE"/>
<path d="M345.219 166.317H358V51.1542H345.219V166.317Z" fill="#DEDEDE"/>
<path d="M332.438 191.894H345.219V166.317H332.438V191.894Z" fill="#DEDEDE"/>
<path d="M319.657 217.472H332.438V191.894H319.657V217.472Z" fill="#DEDEDE"/>
<path d="M345.219 51.1542V38.3659H319.657V51.1542H345.219Z" fill="#DEDEDE"/>
<path d="M306.876 243.049H319.657V217.472H306.876V243.049Z" fill="#DEDEDE"/>
<path d="M294.095 268.691H306.876V243.049H294.095V268.691Z" fill="#DEDEDE"/>
<path d="M281.314 63.943V51.1542H242.905V38.3659H115.095V51.1542H76.6865V63.943H38.3432V166.317H51.124V140.74H140.657V127.951H153.438V115.162H166.219V51.1542H191.781V115.162H204.562V127.951H217.343V140.74H306.876V166.317H319.657V63.943H281.314ZM294.095 127.951H281.314V76.7317H294.095V127.951Z" fill="#DEDEDE"/>
<path d="M281.314 294.268H294.095V268.691H281.314V294.268Z" fill="#DEDEDE"/>
<path d="M217.343 166.317V179.106H204.562V191.894H191.781V319.845H166.219V191.894H153.438V179.106H140.657V166.317H51.124V191.894H63.9053V217.472H76.6865V243.049H89.4673V268.691H102.314V294.268H115.095V307.057H127.876V319.845H140.657V332.634H217.343V319.845H230.124V307.057H242.905V294.268H255.752V268.691H268.533V243.049H281.314V217.472H294.095V191.894H306.876V166.317H217.343ZM268.533 217.472H255.752V255.837H242.905V281.48H230.124V255.837H242.905V217.472H255.752V191.894H268.533V217.472Z" fill="#DEDEDE"/>
<path d="M319.657 38.3659V25.5771H281.314V38.3659H319.657Z" fill="#DEDEDE"/>
<path d="M281.314 294.268H268.533V307.057H281.314V294.268Z" fill="#DEDEDE"/>
<path d="M268.533 307.057H255.752V319.845H268.533V307.057Z" fill="#DEDEDE"/>
<path d="M255.752 319.845H242.905V332.634H255.752V319.845Z" fill="#DEDEDE"/>
<path d="M281.314 25.5771V12.7887H242.905V25.5771H281.314Z" fill="#DEDEDE"/>
<path d="M242.905 332.634H230.124V345.423H242.905V332.634Z" fill="#DEDEDE"/>
<path d="M204.562 345.423V358.211H230.124V345.423H204.562Z" fill="#DEDEDE"/>
<path d="M153.438 358.211V371H204.562V358.211H153.438Z" fill="#DEDEDE"/>
<path d="M166.219 140.74V166.317H191.781V140.74H166.219Z" fill="#DEDEDE"/>
<path d="M127.876 345.423V358.211H153.438V345.423H127.876Z" fill="#DEDEDE"/>
<path d="M242.905 12.7887V0H115.095V12.7887H242.905Z" fill="#DEDEDE"/>
<path d="M127.876 332.634H115.095V345.423H127.876V332.634Z" fill="#DEDEDE"/>
<path d="M115.095 319.845H102.314V332.634H115.095V319.845Z" fill="#DEDEDE"/>
<path d="M102.314 307.057H89.4673V319.845H102.314V307.057Z" fill="#DEDEDE"/>
<path d="M115.095 25.5771V12.7887H76.6865V25.5771H115.095Z" fill="#DEDEDE"/>
<path d="M89.4673 294.268H76.6865V307.057H89.4673V294.268Z" fill="#DEDEDE"/>
<path d="M76.6865 268.691H63.9053V294.268H76.6865V268.691Z" fill="#DEDEDE"/>
<path d="M63.9053 243.049H51.124V268.691H63.9053V243.049Z" fill="#DEDEDE"/>
<path d="M76.6865 38.3659V25.5771H38.3432V38.3659H76.6865Z" fill="#DEDEDE"/>
<path d="M51.124 217.472H38.3432V243.049H51.124V217.472Z" fill="#DEDEDE"/>
<path d="M38.3432 191.894H25.562V217.472H38.3432V191.894Z" fill="#DEDEDE"/>
<path d="M38.3432 51.1542V38.3659H12.7808V51.1542H38.3432Z" fill="#DEDEDE"/>
<path d="M25.562 166.317H12.7808V191.894H25.562V166.317Z" fill="#DEDEDE"/>
</svg>

<svg width="358" height="371" fill="none" xmlns="http://www.w3.org/2000/svg"><path d="M12.78 51.154H0v115.163h12.78V51.154ZM345.219 166.317H358V51.154h-12.781v115.163ZM332.438 191.894h12.781v-25.577h-12.781v25.577ZM319.657 217.472h12.781v-25.578h-12.781v25.578ZM345.219 51.154V38.366h-25.562v12.788h25.562ZM306.876 243.049h12.781v-25.577h-12.781v25.577Z" fill="#DEDEDE"/><path d="M294.095 268.691h12.781v-25.642h-12.781v25.642ZM281.314 63.943V51.154h-38.409V38.366h-127.81v12.788H76.686v12.789H38.343v102.374h12.781V140.74h89.533v-12.789h12.781v-12.789h12.781V51.154h25.562v64.008h12.781v12.789h12.781v12.789h89.533v25.577h12.781V63.943h-38.343Zm12.781 64.008h-12.781v-51.22h12.781v51.22ZM281.314 294.268h12.781v-25.577h-12.781v25.577Z" fill="#DEDEDE"/><path d="M217.343 166.317v12.789h-12.781v12.788h-12.781v127.951h-25.562V191.894h-12.781v-12.788h-12.781v-12.789H51.124v25.577h12.781v25.578h12.781v25.577h12.781v25.642h12.847v25.577h12.781v12.789h12.781v12.788h12.781v12.789h76.686v-12.789h12.781v-12.788h12.781v-12.789h12.847v-25.577h12.781v-25.642h12.781v-25.577h12.781v-25.578h12.781v-25.577h-89.533Zm51.19 51.155h-12.781v38.365h-12.847v25.643h-12.781v-25.643h12.781v-38.365h12.847v-25.578h12.781v25.578ZM319.657 38.366V25.577h-38.343v12.789h38.343ZM281.314 294.268h-12.781v12.789h12.781v-12.789ZM268.533 307.057h-12.781v12.788h12.781v-12.788ZM255.752 319.845h-12.847v12.789h12.847v-12.789Z" fill="#DEDEDE"/><path d="M281.314 25.577V12.79h-38.409v12.788h38.409ZM242.905 332.634h-12.781v12.789h12.781v-12.789ZM204.562 345.423v12.788h25.562v-12.788h-25.562ZM153.438 358.211V371h51.124v-12.789h-51.124ZM166.219 140.74v25.577h25.562V140.74h-25.562ZM127.876 345.423v12.788h25.562v-12.788h-25.562ZM242.905 12.789V0h-127.81v12.789h127.81ZM127.876 332.634h-12.781v12.789h12.781v-12.789ZM115.095 319.845h-12.781v12.789h12.781v-12.789ZM102.314 307.057H89.467v12.788h12.847v-12.788ZM115.095 25.577V12.79H76.686v12.788h38.409ZM89.467 294.268h-12.78v12.789h12.78v-12.789ZM76.686 268.691h-12.78v25.577h12.78v-25.577ZM63.905 243.049H51.124v25.642h12.781v-25.642ZM76.686 38.366V25.577H38.343v12.789h38.343ZM51.124 217.472h-12.78v25.577h12.78v-25.577ZM38.343 191.894H25.562v25.578h12.781v-25.578ZM38.343 51.154V38.366H12.781v12.788h25.562ZM25.562 166.317H12.781v25.577h12.781v-25.577Z" fill="#DEDEDE"/></svg>
